X:1
T: 1798 March, The
M:4/4
R: March
K:D
|de||f2ed B2 dB|AFAB A2de|f2 ed B2 dB|Ae e>f eAde|
w: d e f2 e d B2 d B A F A B A2 d e f2 e d B2 d B A e e f e A d e
|f2 ed B2 dB|AFAB A2de|f2 ed BAFA|1d2 d>c d2de:|2d2 d>c d2 fg|
w: f2 e d B2 d B A F A B A2 d e f2 e d B A F A d2 d c d2 d e d2 d c d2 f g
||a2 fe d>e fd|ef/e/ de f2 df|a2 fe d>e fd|e2 e>f eAde|
w: a2 f e d e f d e f e d e f2 d f a2 f e d e f d e2 e f e A d e
|f2 ed B2 dB|AFAB A2de|f2 ed BAFA|1d2 d>c d2 fg:|2d2 d>c d4||
w: f2 e d B2 d B A F A B A2 d e f2 e d B A F A d2 d c d2 f g d2 d c d4





%wordsfont Times-Roman 13.0
%vocalfont Times-Roman 13.0
